src/lib/assets/favicon.svg

<svg width="256" xmlns="http://www.w3.org/2000/svg" height="256" id="screenshot-ef94fbb0-dbab-80ed-8006-89429900edbf" viewBox="0 0 256 256" xmlns:xlink="http://www.w3.org/1999/xlink" fill="none" version="1.1"><g id="shape-ef94fbb0-dbab-80ed-8006-89429900edbf" rx="0" ry="0"><g id="shape-ef94fbb0-dbab-80ed-8006-894215755c3a"><g class="fills" id="fills-ef94fbb0-dbab-80ed-8006-894215755c3a"><rect rx="0" ry="0" x="0" y="0" transform="matrix(1.000000, 0.000000, 0.000000, 1.000000, 0.000000, 0.000000)" width="256" height="256" style="fill: rgb(27, 31, 32); fill-opacity: 1;"/></g></g><g id="shape-ef94fbb0-dbab-80ed-8006-89422363ef3f" rx="0" ry="0"><g id="shape-ef94fbb0-dbab-80ed-8006-89422363ef40"><g class="fills" id="fills-ef94fbb0-dbab-80ed-8006-89422363ef40"><path d="M171.66500854492188,99.5302505493164L159.79953002929688,120.62468719482422C144.15451049804688,108.58329010009766,120.9504165649414,106.8254165649414,105.3053970336914,119.7457504272461C80.0798110961914,140.57652282714844,81.8376235961914,188.7422637939453,121.1261978149414,189.00587463378906C132.11300659179688,189.00587463378906,141.42965698242188,183.8201141357422,151.44967651367188,180.39234924316406L156.72335815429688,201.3988494873047C147.84591674804688,205.52989196777344,138.79293823242188,209.7487335205078,129.03683471679688,211.06712341308594C40.08835220336914,223.1964569091797,45.18600845336914,94.78400421142578,125.6088638305664,88.10407257080078C142.48434448242188,86.69782257080078,157.33834838867188,91.09247589111328,171.75314331054688,99.5302505493164Z" class="st0" style="fill: rgb(255, 130, 54); fill-opacity: 1;"/></g></g><g id="shape-ef94fbb0-dbab-80ed-8006-89422363ef41"><g class="fills" id="fills-ef94fbb0-dbab-80ed-8006-89422363ef41"><path d="M110.2272720336914,79.31470489501953C96.6918716430664,83.35785675048828,84.1232681274414,90.8288345336914,74.6305923461914,101.28812408447266C72.8727798461914,80.01782989501953,77.6188735961914,37.03793716430664,101.2621841430664,28.6001033782959C104.7780532836914,27.36964988708496,116.8195571899414,24.293371200561523,116.4679946899414,30.533788681030273C116.1161880493164,36.77426528930664,107.7663345336914,47.49722671508789,105.7450942993164,53.29823684692383C102.2292251586914,63.49386978149414,105.4811782836914,70.52535247802734,110.3154067993164,79.40265655517578Z" class="st0" style="fill: rgb(255, 130, 54); fill-opacity: 1;"/></g></g><g id="shape-ef94fbb0-dbab-80ed-8006-89422363ef42"><g class="fills" id="fills-ef94fbb0-dbab-80ed-8006-89422363ef42"><path d="M143.62692260742188,127.65621185302734L143.62692260742188,143.47706604003906L157.68991088867188,143.47706604003906L157.68991088867188,155.7821807861328L143.62692260742188,155.7821807861328L143.62692260742188,170.7240753173828L130.44284057617188,170.7240753173828L130.44284057617188,155.7821807861328L115.5009536743164,155.7821807861328L115.5009536743164,143.47706604003906L129.12448120117188,143.47706604003906L130.44284057617188,142.15867614746094L130.44284057617188,127.65621185302734L143.62692260742188,127.65621185302734Z" class="st0" style="fill: rgb(255, 130, 54); fill-opacity: 1;"/></g></g><g id="shape-ef94fbb0-dbab-80ed-8006-89422363ef43"><g class="fills" id="fills-ef94fbb0-dbab-80ed-8006-89422363ef43"><path d="M191.96823120117188,127.65621185302734L191.96823120117188,142.15867614746094L193.28683471679688,143.47706604003906L206.91036987304688,143.47706604003906L206.91036987304688,155.7821807861328L191.96823120117188,155.7821807861328L191.96823120117188,170.7240753173828L178.78439331054688,170.7240753173828L178.78439331054688,155.7821807861328L164.72140502929688,155.7821807861328L164.72140502929688,143.47706604003906L178.78439331054688,143.47706604003906L178.78439331054688,127.65621185302734L191.96823120117188,127.65621185302734Z" class="st0" style="fill: rgb(255, 130, 54); fill-opacity: 1;"/></g></g><g id="shape-ef94fbb0-dbab-80ed-8006-89422363ef44"><g class="fills" id="fills-ef94fbb0-dbab-80ed-8006-89422363ef44"><path d="M153.20748901367188,38.092655181884766C154.96554565429688,40.72946548461914,145.03341674804688,52.06770706176758,143.45114135742188,54.96817398071289C138.88082885742188,63.581790924072266,141.95700073242188,68.50382232666016,145.38473510742188,76.67792510986328C135.45285034179688,75.18372344970703,126.2240982055664,76.41425323486328,116.3798599243164,77.55683135986328C118.5773696899414,58.659732818603516,129.21261596679688,31.1490535736084,153.20748901367188,38.092655181884766Z" class="st0" style="fill: rgb(255, 130, 54); fill-opacity: 1;"/></g></g></g></g></svg>

<svg xmlns="http://www.w3.org/2000/svg" width="256" height="256" fill="none"><path fill="#ff8236" d="M125.608 88.104c16.876-1.407 31.73 2.988 46.145 11.425h-.088l-11.866 21.095c-15.645-12.041-38.849-13.799-54.494-.879-25.226 20.831-23.467 68.997 15.821 69.261 10.987 0 20.303-5.187 30.323-8.614l5.274 21.006c-8.878 4.131-17.931 8.35-27.687 9.668-88.948 12.129-83.85-116.282-3.428-122.962m18.018 55.374h14.063v12.304h-14.063v14.942h-13.184v-14.942H115.5v-12.304h13.624l1.318-1.319v-14.503h13.184zm48.342-1.319 1.318 1.319h13.624v12.304h-14.942v14.942h-13.184v-14.942h-14.063v-12.304h14.063v-15.822h13.184zM101.263 28.601c3.516-1.23 15.557-4.307 15.206 1.933s-8.702 16.964-10.723 22.765c-3.516 10.195-.264 17.227 4.57 26.104l-.088-.088C96.692 83.36 84.123 90.83 74.631 101.288c-1.758-21.27 2.989-64.25 26.632-72.687m15.116 48.956c2.197-18.897 12.833-46.408 36.828-39.464 1.757 2.637-8.174 13.974-9.757 16.875-4.57 8.613-1.494 13.536 1.934 21.71-9.932-1.495-19.161-.264-29.005.879"/></svg>
